src/assets/curso/temas/tema_8/img_8.svg

<svg height="129" viewBox="0 0 129 129" width="129" xmlns="http://www.w3.org/2000/svg" xmlns:xlink="http://www.w3.org/1999/xlink"><radialGradient id="a" cx=".5" cy=".5" gradientUnits="objectBoundingBox" r=".5"><stop offset="0" stop-color="#fff"/><stop offset="1" stop-color="#fff7ea"/></radialGradient><g transform="translate(-425.572 -4163)"><g fill="url(#a)" stroke="#fff" stroke-width="2" transform="translate(440.571 4178)"><circle cx="49.5" cy="49.5" r="49.5" stroke="none"/><circle cx="49.5" cy="49.5" fill="none" r="48.5"/></g><g fill="none" opacity=".43" stroke="#59836b" stroke-width="10"><circle cx="490.071" cy="4227.5" r="64.5" stroke="none"/><circle cx="490.071" cy="4227.5" fill="none" r="59.5"/></g></g><g transform="translate(32.498 32.48)"><path d="m56.14 43.853a11.8 11.8 0 0 1 -9.22 18.117q-.456.03-.92.03t-.92-.03a11.8 11.8 0 0 1 -9.22-18.117l10.14-15.853z" fill="#ccc"/><path d="m46.034 28-10.134 15.853a11.722 11.722 0 0 0 -1.658 4.147h14.792a3 3 0 0 0 3-3v-7.619z" fill="#f2f2f2"/><path d="m46.034 62c.31 0 .616-.01.92-.03a11.711 11.711 0 0 0 10.046-6.992l-19.961-12.914-1.139 1.789a11.8 11.8 0 0 0 9.22 18.117q.451.03.914.03z" fill="#aa2b24"/><path d="m37.039 42.064-1.139 1.789a11.8 11.8 0 0 0 2.081 15.147h11.053a3 3 0 0 0 3-3v-4.235z" fill="#d24034"/><path d="m40.6 16.744c3.733 6.4-.412 14.732-7.846 15.231-.251.016-.5.025-.759.025s-.508-.009-.759-.025c-7.434-.5-11.579-8.834-7.846-15.231l8.61-14.744z" fill="#ccc"/><path d="m32 2-8.6 14.744a10.3 10.3 0 0 0 -.962 2.246h10.682a3 3 0 0 0 3-3v-6.93z" fill="#f2f2f2"/><path d="m41.092 26.061-16.792-10.867-.905 1.55c-3.733 6.4.412 14.732 7.846 15.231.251.016.5.025.759.025s.508-.009.759-.025a9.773 9.773 0 0 0 8.333-5.914z" fill="#f3a845"/><path d="m24.3 15.194-.905 1.55a10.253 10.253 0 0 0 1.481 12.256h7.124a4 4 0 0 0 4-4v-2.235z" fill="#eecc61"/><path d="m28.14 43.853a11.8 11.8 0 0 1 -9.22 18.117q-.456.03-.92.03t-.92-.03a11.8 11.8 0 0 1 -9.22-18.117l10.14-15.853z" fill="#ccc"/><path d="m18.034 28-10.134 15.853a11.722 11.722 0 0 0 -1.658 4.147h14.792a3 3 0 0 0 3-3v-7.619z" fill="#f2f2f2"/><path d="m18.034 62c.31 0 .616-.01.92-.03a11.711 11.711 0 0 0 10.046-6.992l-19.961-12.914-1.139 1.789a11.8 11.8 0 0 0 9.22 18.117q.451.03.914.03z" fill="#2763bb"/><path d="m9.039 42.064-1.139 1.789a11.8 11.8 0 0 0 2.081 15.147h11.053a3 3 0 0 0 3-3v-4.235z" fill="#3079e6"/><path d="m41.671 27.2a11.191 11.191 0 0 0 -.2-10.956l-8.607-14.744a1.041 1.041 0 0 0 -1.728 0l-8.6 14.745a11.191 11.191 0 0 0 -.2 10.956 10.791 10.791 0 0 0 8.846 5.776c.273.017.548.027.825.027s.552-.01.826-.028a10.787 10.787 0 0 0 8.838-5.776zm-9.671-23.216 7.741 13.265a9.16 9.16 0 0 1 .85 7.3l-14.946-9.676zm.693 26.993a10.494 10.494 0 0 1 -1.385 0 8.8 8.8 0 0 1 -7.208-4.717 9.2 9.2 0 0 1 .163-9.011l.377-.647 15.171 9.817a8.793 8.793 0 0 1 -7.118 4.558z"/><path d="m56.982 43.314-10.14-15.853a1.039 1.039 0 0 0 -1.684 0l-10.14 15.853a12.8 12.8 0 0 0 10 19.654q.482.032.982.032t.985-.032a12.8 12.8 0 0 0 10-19.654zm-10.982-13.458 9.3 14.536a10.648 10.648 0 0 1 1.169 9.068l-18.06-11.737zm.855 31.116a13.535 13.535 0 0 1 -1.709 0 10.8 10.8 0 0 1 -8.446-16.58l.629-.984 18.339 11.919a10.721 10.721 0 0 1 -8.813 5.645z"/><path d="m24 19h2v2h-2z"/><path d="m27 21h2v2h-2z"/><path d="m25 24h2v2h-2z"/><path d="m28 26h2v2h-2z"/><path d="m30 23h2v2h-2z"/><path d="m33 25h2v2h-2z"/><path d="m31 28h2v2h-2z"/><path d="m37 46h2v2h-2z"/><path d="m40 48h2v2h-2z"/><path d="m37 50h2v2h-2z"/><path d="m40 52h2v2h-2z"/><path d="m43 50h2v2h-2z"/><path d="m46 52h2v2h-2z"/><path d="m49 54h2v2h-2z"/><path d="m43 54h2v2h-2z"/><path d="m46 57h2v2h-2z"/><path d="m38 55h2v2h-2z"/><path d="m42 57h2v2h-2z"/><path d="m18.842 27.461a1.039 1.039 0 0 0 -1.684 0l-10.14 15.853a12.8 12.8 0 0 0 10 19.654q.482.032.982.032t.985-.032a12.8 12.8 0 0 0 10-19.654zm.013 33.511a13.535 13.535 0 0 1 -1.709 0 10.8 10.8 0 0 1 -8.446-16.58l.629-.984 18.339 11.919a10.721 10.721 0 0 1 -8.813 5.645zm9.611-7.512-18.057-11.737 7.591-11.867 9.3 14.536a10.648 10.648 0 0 1 1.166 9.068z"/><path d="m9 46h2v2h-2z"/><path d="m12 48h2v2h-2z"/><path d="m9 50h2v2h-2z"/><path d="m12 52h2v2h-2z"/><path d="m15 50h2v2h-2z"/><path d="m18 52h2v2h-2z"/><path d="m21 54h2v2h-2z"/><path d="m15 54h2v2h-2z"/><path d="m18 57h2v2h-2z"/><path d="m10 55h2v2h-2z"/><path d="m14 57h2v2h-2z"/></g></svg>

<svg xmlns="http://www.w3.org/2000/svg" xmlns:xlink="http://www.w3.org/1999/xlink" width="129" height="129" viewBox="0 0 129 129">
  <defs>
    <radialGradient id="radial-gradient" cx="0.5" cy="0.5" r="0.5" gradientUnits="objectBoundingBox">
      <stop offset="0" stop-color="#fff"/>
      <stop offset="1" stop-color="#fff7ea"/>
    </radialGradient>
  </defs>
  <g id="Grupo_1127464" data-name="Grupo 1127464" transform="translate(-737.051 -3630)">
    <g id="Grupo_1106785" data-name="Grupo 1106785" transform="translate(0.479 -533)">
      <g id="Grupo_1106776" data-name="Grupo 1106776" transform="translate(311)">
        <g id="Elipse_12307" data-name="Elipse 12307" transform="translate(440.571 4178)" stroke="#fff" stroke-width="2" fill="url(#radial-gradient)">
          <circle cx="49.5" cy="49.5" r="49.5" stroke="none"/>
          <circle cx="49.5" cy="49.5" r="48.5" fill="none"/>
        </g>
        <g id="Elipse_12308" data-name="Elipse 12308" transform="translate(425.571 4163)" fill="none" stroke="#59836b" stroke-width="10" opacity="0.43">
          <circle cx="64.5" cy="64.5" r="64.5" stroke="none"/>
          <circle cx="64.5" cy="64.5" r="59.5" fill="none"/>
        </g>
      </g>
    </g>
    <g id="Grupo_1127821" data-name="Grupo 1127821" transform="translate(769.549 3662.48)">
      <path id="Trazado_919631" data-name="Trazado 919631" d="M56.14,43.853A11.8,11.8,0,0,1,46.92,61.97Q46.464,62,46,62t-.92-.03a11.8,11.8,0,0,1-9.22-18.117L46,28Z" fill="#ccc"/>
      <path id="Trazado_919632" data-name="Trazado 919632" d="M46.034,28,35.9,43.853A11.722,11.722,0,0,0,34.242,48H49.034a3,3,0,0,0,3-3V37.381Z" fill="#f2f2f2"/>
      <path id="Trazado_919633" data-name="Trazado 919633" d="M46.034,62c.31,0,.616-.01.92-.03A11.711,11.711,0,0,0,57,54.978L37.039,42.064,35.9,43.853A11.8,11.8,0,0,0,45.12,61.97q.451.03.914.03Z" fill="#aa2b24"/>
      <path id="Trazado_919634" data-name="Trazado 919634" d="M37.039,42.064,35.9,43.853A11.8,11.8,0,0,0,37.981,59H49.034a3,3,0,0,0,3-3V51.765Z" fill="#d24034"/>
      <path id="Trazado_919635" data-name="Trazado 919635" d="M40.6,16.744c3.733,6.4-.412,14.732-7.846,15.231-.251.016-.5.025-.759.025s-.508-.009-.759-.025c-7.434-.5-11.579-8.834-7.846-15.231L32,2Z" fill="#ccc"/>
      <path id="Trazado_919636" data-name="Trazado 919636" d="M32,2,23.4,16.744a10.3,10.3,0,0,0-.962,2.246H33.12a3,3,0,0,0,3-3V9.06Z" fill="#f2f2f2"/>
      <path id="Trazado_919637" data-name="Trazado 919637" d="M41.092,26.061,24.3,15.194l-.905,1.55c-3.733,6.4.412,14.732,7.846,15.231.251.016.5.025.759.025s.508-.009.759-.025a9.773,9.773,0,0,0,8.333-5.914Z" fill="#f3a845"/>
      <path id="Trazado_919638" data-name="Trazado 919638" d="M24.3,15.194l-.905,1.55A10.253,10.253,0,0,0,24.876,29H32a4,4,0,0,0,4-4V22.765Z" fill="#eecc61"/>
      <path id="Trazado_919639" data-name="Trazado 919639" d="M28.14,43.853A11.8,11.8,0,0,1,18.92,61.97Q18.464,62,18,62t-.92-.03A11.8,11.8,0,0,1,7.86,43.853L18,28Z" fill="#ccc"/>
      <path id="Trazado_919640" data-name="Trazado 919640" d="M18.034,28,7.9,43.853A11.722,11.722,0,0,0,6.242,48H21.034a3,3,0,0,0,3-3V37.381Z" fill="#f2f2f2"/>
      <path id="Trazado_919641" data-name="Trazado 919641" d="M18.034,62c.31,0,.616-.01.92-.03A11.711,11.711,0,0,0,29,54.978L9.039,42.064,7.9,43.853A11.8,11.8,0,0,0,17.12,61.97q.451.03.914.03Z" fill="#2763bb"/>
      <path id="Trazado_919642" data-name="Trazado 919642" d="M9.039,42.064,7.9,43.853A11.8,11.8,0,0,0,9.981,59H21.034a3,3,0,0,0,3-3V51.765Z" fill="#3079e6"/>
      <path id="Trazado_919643" data-name="Trazado 919643" d="M41.671,27.2a11.191,11.191,0,0,0-.2-10.956L32.864,1.5a1.041,1.041,0,0,0-1.728,0l-8.6,14.745a11.191,11.191,0,0,0-.2,10.956,10.791,10.791,0,0,0,8.846,5.776c.273.017.548.027.825.027s.552-.01.826-.028A10.787,10.787,0,0,0,41.671,27.2ZM32,3.984l7.741,13.265a9.16,9.16,0,0,1,.85,7.3L25.645,14.873Zm.693,26.993a10.494,10.494,0,0,1-1.385,0A8.8,8.8,0,0,1,24.1,26.26a9.2,9.2,0,0,1,.163-9.011l.377-.647,15.171,9.817A8.793,8.793,0,0,1,32.693,30.977Z"/>
      <path id="Trazado_919644" data-name="Trazado 919644" d="M56.982,43.314,46.842,27.461a1.039,1.039,0,0,0-1.684,0L35.018,43.314a12.8,12.8,0,0,0,10,19.654Q45.5,63,46,63t.985-.032a12.8,12.8,0,0,0,10-19.654ZM46,29.856l9.3,14.536a10.648,10.648,0,0,1,1.169,9.068L38.409,41.723Zm.855,31.116a13.535,13.535,0,0,1-1.709,0A10.8,10.8,0,0,1,36.7,44.392l.629-.984L55.668,55.327a10.721,10.721,0,0,1-8.813,5.645Z"/>
      <path id="Trazado_919645" data-name="Trazado 919645" d="M24,19h2v2H24Z"/>
      <path id="Trazado_919646" data-name="Trazado 919646" d="M27,21h2v2H27Z"/>
      <path id="Trazado_919647" data-name="Trazado 919647" d="M25,24h2v2H25Z"/>
      <path id="Trazado_919648" data-name="Trazado 919648" d="M28,26h2v2H28Z"/>
      <path id="Trazado_919649" data-name="Trazado 919649" d="M30,23h2v2H30Z"/>
      <path id="Trazado_919650" data-name="Trazado 919650" d="M33,25h2v2H33Z"/>
      <path id="Trazado_919651" data-name="Trazado 919651" d="M31,28h2v2H31Z"/>
      <path id="Trazado_919652" data-name="Trazado 919652" d="M37,46h2v2H37Z"/>
      <path id="Trazado_919653" data-name="Trazado 919653" d="M40,48h2v2H40Z"/>
      <path id="Trazado_919654" data-name="Trazado 919654" d="M37,50h2v2H37Z"/>
      <path id="Trazado_919655" data-name="Trazado 919655" d="M40,52h2v2H40Z"/>
      <path id="Trazado_919656" data-name="Trazado 919656" d="M43,50h2v2H43Z"/>
      <path id="Trazado_919657" data-name="Trazado 919657" d="M46,52h2v2H46Z"/>
      <path id="Trazado_919658" data-name="Trazado 919658" d="M49,54h2v2H49Z"/>
      <path id="Trazado_919659" data-name="Trazado 919659" d="M43,54h2v2H43Z"/>
      <path id="Trazado_919660" data-name="Trazado 919660" d="M46,57h2v2H46Z"/>
      <path id="Trazado_919661" data-name="Trazado 919661" d="M38,55h2v2H38Z"/>
      <path id="Trazado_919662" data-name="Trazado 919662" d="M42,57h2v2H42Z"/>
      <path id="Trazado_919663" data-name="Trazado 919663" d="M18.842,27.461a1.039,1.039,0,0,0-1.684,0L7.018,43.314a12.8,12.8,0,0,0,10,19.654Q17.5,63,18,63t.985-.032a12.8,12.8,0,0,0,10-19.654Zm.013,33.511a13.535,13.535,0,0,1-1.709,0A10.8,10.8,0,0,1,8.7,44.392l.629-.984L27.668,55.327a10.721,10.721,0,0,1-8.813,5.645Zm9.611-7.512L10.409,41.723,18,29.856l9.3,14.536a10.648,10.648,0,0,1,1.166,9.068Z"/>
      <path id="Trazado_919664" data-name="Trazado 919664" d="M9,46h2v2H9Z"/>
      <path id="Trazado_919665" data-name="Trazado 919665" d="M12,48h2v2H12Z"/>
      <path id="Trazado_919666" data-name="Trazado 919666" d="M9,50h2v2H9Z"/>
      <path id="Trazado_919667" data-name="Trazado 919667" d="M12,52h2v2H12Z"/>
      <path id="Trazado_919668" data-name="Trazado 919668" d="M15,50h2v2H15Z"/>
      <path id="Trazado_919669" data-name="Trazado 919669" d="M18,52h2v2H18Z"/>
      <path id="Trazado_919670" data-name="Trazado 919670" d="M21,54h2v2H21Z"/>
      <path id="Trazado_919671" data-name="Trazado 919671" d="M15,54h2v2H15Z"/>
      <path id="Trazado_919672" data-name="Trazado 919672" d="M18,57h2v2H18Z"/>
      <path id="Trazado_919673" data-name="Trazado 919673" d="M10,55h2v2H10Z"/>
      <path id="Trazado_919674" data-name="Trazado 919674" d="M14,57h2v2H14Z"/>
    </g>
  </g>
</svg>
